src/icons/upload.svg

<svg xmlns="http://www.w3.org/2000/svg" width="24" height="24" fill="none"><path fill="currentColor" d="M22 21v-6h-2v4H4v-4H2v6z"/><path fill="currentColor" d="M13 17h-2V6L8 9 6.5 7.5 12 2l5.5 5.5L16 9l-3-3z"/></svg>

<svg width="24" height="24" viewBox="0 0 24 24" fill="none" xmlns="http://www.w3.org/2000/svg">
<path d="M22 21V15H20V19H4L4 15H2L2 21H22Z" fill="black"/>
<path d="M13 17H11L11 6L8 9L6.5 7.5L12 2L17.5 7.5L16 9L13 6L13 17Z" fill="black"/>
</svg>
